X: 1
T: Tim Horton's Strathspey
C: Jerry Holland
R: strathspey
S: printed copy in Concord Slow Scottish collection
Z: 2017 John Chambers <jc:trillian.mit.edu>
M: C
L: 1/8
K: Bdor
%%staffsep 40
|:\
"Bm"Ta>g f>e f<B d2 | Ta>g f>a "A"e<A c2 |\
"A"Ta>g f>e "Bm"f<B d>c | "Bm"(3Bcd (3fga "A"e<A c2 ::\
"Bm"F<B D>B F>B {Bc}d2 |
"Bm"d>f b>g "A7"a>e c<A |\
[1 "Bm"F<B D>B F>B d>g | "E"a>f (3gfe "F#m"f2 f/g/a :|\
[2 "Bm"b>f d<B "A"a>e c<A | "A"a>g f>e f2 (f/g/a) |]
